brandFactory_export/2.Regular/Flecha abajo_2Regular.svg

<?xml version="1.0" encoding="UTF-8"?>
<svg width="24px" height="24px" viewBox="0 0 24 24" version="1.1" xmlns="http://www.w3.org/2000/svg" xmlns:xlink="http://www.w3.org/1999/xlink">
    <title>2.Regular/Flecha abajo_2Regular</title>
    <g id="Symbols" stroke="none" stroke-width="1" fill="none" fill-rule="evenodd">
        <g id="2.Regular/Flecha-abajo_2Regular" fill="#5CB615" fill-rule="nonzero">
            <path d="M11.7781513,23.6806723 L11.7714286,23.6806723 C11.589916,23.6806723 11.3176471,23.6201681 11.0588235,23.3512605 L0.61512605,13.1764706 C0.0773109244,12.6655462 -0.114285714,11.9563025 0.127731092,11.3680672 C0.339495798,10.8504202 0.83697479,10.5344538 1.43529412,10.5344538 L1.45546218,10.5344538 L5.83529412,10.5310924 C5.85546218,10.5210084 5.88235294,10.5042017 5.90252101,10.4840336 L5.92605042,2.22521008 C5.91596639,1.48571429 6.10084034,0.941176471 6.48739496,0.561344538 C6.87394958,0.181512605 7.41848739,0.0100840336 8.15798319,0.0302521008 L15.4084034,0.0302521008 C15.912605,0.0201680672 16.6386555,0.0672268908 17.1428571,0.554621849 C17.6504202,1.04537815 17.7176471,1.76470588 17.7277311,2.26554622 L17.7277311,2.27563025 L17.7243697,10.3294118 C17.7277311,10.3764706 17.7546218,10.4537815 17.7882353,10.5176471 L22.0638655,10.5109244 L22.0705882,10.5109244 C23.0991597,10.5176471 23.4487395,11.0084034 23.5663866,11.3008403 C23.7680672,11.8016807 23.5831933,12.3798319 23.0621849,12.887395 L12.6084034,23.2773109 C12.5008403,23.3848739 12.2084034,23.6806723 11.7781513,23.6806723 Z M1.43193277,11.8453782 C1.37142857,11.8453782 1.34453782,11.8588235 1.33781513,11.8621849 C1.3210084,11.8857143 1.31764706,12.0436975 1.51596639,12.2319328 L1.52268908,12.2386555 L11.7915966,22.2420168 L22.1344538,11.9630252 L22.1411765,11.9563025 C22.1882353,11.912605 22.2218487,11.8722689 22.2487395,11.8386555 C22.1983193,11.8319328 22.1344538,11.8252101 22.0571429,11.8252101 L17.6033613,11.8319328 C16.8201681,11.8319328 16.410084,10.8605042 16.410084,10.3361345 L16.4134454,2.28571429 C16.4067227,1.88235294 16.3428571,1.61008403 16.2285714,1.49915966 C16.1142857,1.38823529 15.8352941,1.33445378 15.4218487,1.34453782 L8.1210084,1.34453782 C7.87226891,1.33781513 7.54621849,1.35798319 7.39831933,1.49915966 C7.25378151,1.64369748 7.22689076,1.96638655 7.2302521,2.21512605 L7.2302521,2.22521008 L7.20672269,10.5714286 C7.20672269,11.2739496 6.47058824,11.8386555 5.86218487,11.8386555 L1.4487395,11.8420168 L1.43865546,11.8420168 C1.43865546,11.8453782 1.43529412,11.8453782 1.43193277,11.8453782 L1.43193277,11.8453782 Z" id="Flecha-abajo_2Regular"></path>
        </g>
    </g>
</svg>

<svg width="24" height="24" viewBox="0 0 24 24" xmlns="http://www.w3.org/2000/svg"><path d="M11.778 23.68h-.007c-.181 0-.453-.06-.712-.329L.615 13.176c-.538-.51-.73-1.22-.487-1.808.211-.518.709-.834 1.307-.834h.02l4.38-.003a.273.273 0 00.068-.047l.023-8.259c-.01-.74.175-1.284.561-1.664.387-.38.931-.55 1.671-.53h7.25c.505-.01 1.23.036 1.735.524.507.49.575 1.21.585 1.71v.01l-.004 8.054c.004.047.03.125.064.189l4.276-.007h.007c1.028.007 1.378.497 1.495.79.202.5.017 1.079-.504 1.586l-10.454 10.39c-.107.108-.4.404-.83.404zM1.432 11.846a.202.202 0 00-.094.017c-.017.024-.02.182.178.37l.007.007 10.269 10.003 10.342-10.279.007-.007a1.04 1.04 0 00.108-.117 1.418 1.418 0 00-.192-.014l-4.454.007c-.783 0-1.193-.971-1.193-1.496l.003-8.05c-.006-.404-.07-.676-.184-.787-.115-.11-.394-.165-.807-.154H8.12c-.249-.007-.575.013-.723.154-.144.145-.171.467-.168.716v.01l-.023 8.346c0 .703-.736 1.268-1.345 1.268l-4.413.003h-.01c0 .003-.004.003-.007.003z" fill="#5CB615" fill-rule="nonzero"/></svg>
